images/traning-5.svg

<svg width="56" height="36" viewBox="0 0 56 36" fill="none" xmlns="http://www.w3.org/2000/svg">
<path d="M54.2903 0H23.8694C22.9261 0 22.1597 0.766419 22.1597 1.7097V14.444C22.6903 14.2672 23.2209 14.2082 23.8104 14.2082C24.4589 14.2082 25.0485 14.3261 25.5791 14.5619V3.4194H52.5806V32.0717H25.5791V24.1127L22.1597 25.8814V33.7814C22.1597 34.7246 22.9261 35.4911 23.8694 35.4911H54.2903C55.2336 35.4911 56 34.7246 56 33.7814V1.7097C56 0.766419 55.2336 0 54.2903 0Z" fill="#FF8901"/>
<path d="M26.3455 17.9814C25.638 16.5664 23.9283 16.0358 22.5134 16.7433L17.2074 19.4552C17.2074 19.4552 11.5477 15.6232 10.9582 15.2105C10.3686 14.7978 9.66117 14.444 9.24849 14.2672C7.36192 13.6776 2.52759 13.206 1.17162 16.3896C-0.243308 19.75 -0.00748662 28.4164 0.0514686 34.6067C0.0514686 35.1373 0.4052 35.55 0.935797 35.55C2.23281 35.55 10.5455 35.55 11.194 35.55C11.8425 35.55 12.0194 35.1963 12.1373 34.7246C12.1962 34.4299 12.7858 27.4142 12.7268 24.2896C12.7268 23.9358 12.7268 23.5821 12.7268 23.2284L15.4388 25.056C15.9104 25.4097 16.5 25.5276 17.0306 25.5276C17.4433 25.5276 17.9149 25.4097 18.3276 25.2329L25.1664 21.7545C26.4634 21.106 27.053 19.3963 26.3455 17.9814Z" fill="#1D5C73"/>
<path d="M7.06713 12.4396C10.4859 12.4396 13.2574 9.66807 13.2574 6.24926C13.2574 2.83045 10.4859 0.05896 7.06713 0.05896C3.64832 0.05896 0.876831 2.83045 0.876831 6.24926C0.876831 9.66807 3.64832 12.4396 7.06713 12.4396Z" fill="#1D5C73"/>
<path d="M32.5948 21.2829C32.3 21.3418 32.1231 21.5777 32.1231 21.8724V23.759C32.1231 24.1127 32.4179 24.4075 32.7716 24.3486C35.5425 23.9948 37.7239 21.6366 37.7239 18.8068V11.7321C37.7239 11.3784 37.4291 11.1426 37.1343 11.1426H32.0052C31.6515 11.1426 31.4156 11.4374 31.4156 11.7321V17.5687C31.4156 17.9224 31.7104 18.1583 32.0052 18.1583H34.6582V18.8068C34.6582 20.0448 33.7739 21.0471 32.5948 21.2829Z" fill="#FF8901"/>
<path d="M41.615 21.2829C41.3202 21.3418 41.1434 21.5777 41.1434 21.8724V23.759C41.1434 24.1127 41.4381 24.4075 41.7919 24.3486C44.5628 23.9948 46.7441 21.6366 46.7441 18.8068V11.7321C46.7441 11.3784 46.4493 11.1426 46.1546 11.1426H40.9665C40.6128 11.1426 40.377 11.4374 40.377 11.7321V17.5687C40.377 17.9224 40.6717 18.1583 40.9665 18.1583H43.6195V18.8068C43.6195 20.0448 42.7352 21.0471 41.615 21.2829Z" fill="#FF8901"/>
</svg>

<svg width="56" height="36" fill="none" xmlns="http://www.w3.org/2000/svg"><path d="M54.29 0H23.87a1.71 1.71 0 00-1.71 1.71v12.734c.53-.177 1.06-.236 1.65-.236a4.31 4.31 0 011.77.354V3.419h27v28.653h-27v-7.96l-3.42 1.77v7.9c0 .943.766 1.71 1.71 1.71h30.42c.944 0 1.71-.767 1.71-1.71V1.71A1.71 1.71 0 0054.29 0z" fill="#FF8901"/><path d="M26.346 17.981c-.708-1.415-2.418-1.945-3.833-1.238l-5.306 2.712s-5.66-3.832-6.249-4.244a10.408 10.408 0 00-1.71-.944c-1.886-.59-6.72-1.061-8.076 2.123-1.415 3.36-1.18 12.026-1.12 18.217 0 .53.353.943.884.943h10.258c.648 0 .825-.354.943-.825.06-.295.649-7.31.59-10.435v-1.062l2.712 1.828c.471.354 1.061.472 1.592.472.412 0 .884-.118 1.297-.295l6.838-3.479c1.297-.648 1.887-2.358 1.18-3.773zM7.067 12.44a6.19 6.19 0 100-12.381 6.19 6.19 0 000 12.38z" fill="#1D5C73"/><path d="M32.595 21.283a.574.574 0 00-.472.59v1.886c0 .354.295.648.649.59 2.77-.354 4.952-2.712 4.952-5.542v-7.075a.59.59 0 00-.59-.59h-5.129a.59.59 0 00-.59.59v5.837c0 .353.295.59.59.59h2.653v.648c0 1.238-.884 2.24-2.063 2.476zm9.02 0a.574.574 0 00-.472.59v1.886c0 .354.295.648.649.59 2.77-.354 4.952-2.712 4.952-5.542v-7.075a.59.59 0 00-.59-.59h-5.188a.59.59 0 00-.589.59v5.837c0 .353.295.59.59.59h2.653v.648c0 1.238-.885 2.24-2.005 2.476z" fill="#FF8901"/></svg>
